static/fa/svgs/solid/chart-pie.svg

<svg xmlns="http://www.w3.org/2000/svg" viewBox="0 0 576 512"><!--! Font Awesome Free 6.1.1 by @fontawesome - https://fontawesome.com License - https://fontawesome.com/license/free (Icons: CC BY 4.0, Fonts: SIL OFL 1.1, Code: MIT License) Copyright 2022 Fonticons, Inc.--><path d="M304 16.58C304 7.555 310.1 0 320 0c123.7 0 224 100.3 224 224 0 9-7.6 16-16.6 16H304V16.58zM32 272c0-121.3 90.1-221.66 206.1-237.75 10.1-1.26 17.9 6.11 17.9 15.36V288l156.5 156.5c6.7 6.7 6.2 17.7-1.5 23.2-39.2 27.9-87.2 44.3-139 44.3-132.5 0-240-107.4-240-240zm526.4 16c9.2 0 16.6 7.8 15.4 17-7.7 55.9-34.7 105.6-73.9 142.3-6 4.8-15.4 5.2-21.2-.6L320 288h238.4z"/></svg>

<svg xmlns="http://www.w3.org/2000/svg" viewBox="0 0 576 512"><!--! Font Awesome Free 6.1.1 by @fontawesome - https://fontawesome.com License - https://fontawesome.com/license/free (Icons: CC BY 4.0, Fonts: SIL OFL 1.1, Code: MIT License) Copyright 2022 Fonticons, Inc. --><path d="M304 16.58C304 7.555 310.1 0 320 0C443.7 0 544 100.3 544 224C544 233 536.4 240 527.4 240H304V16.58zM32 272C32 150.7 122.1 50.34 238.1 34.25C248.2 32.99 256 40.36 256 49.61V288L412.5 444.5C419.2 451.2 418.7 462.2 411 467.7C371.8 495.6 323.8 512 272 512C139.5 512 32 404.6 32 272zM558.4 288C567.6 288 575 295.8 573.8 305C566.1 360.9 539.1 410.6 499.9 447.3C493.9 452.1 484.5 452.5 478.7 446.7L320 288H558.4z"/></svg>
